X:1
T:David's Aspirations
C:C. Kaynor
M:9/8
L:1/8
K:Gm
[gBDG,]3d3- d2c | B2c B2A G2B | A3 D3- ^F3 | G2^F G2A B2d | [gBDG,]3 d3- d2c | B2c B2A G2B |
A3 D3 ^F=EF | G3 [GB,]6 :: [=FA,]3 [cF]3- [cF]2[AF] | B2A B2c d3 | [DA,]3 [d^F]3 c3 | B2c B2A G3 |
[=FA,]3 [AF]3 [cF]3 | B2A B2c d3 |1 D2^F A2F D2F | G3[GB,]6 :|2 f2e c2A F2A | [BF]3 [BD]6 ||
%%begintext align
%% Note: This is really a 3/4 meter hambo, but the uneven notes sound better
%% on the ABC converter if I write it in 9/8
%%endtext
